icons/1_Primary/YouHodler.svg

<svg width="1024" height="1024" fill="none" xmlns="http://www.w3.org/2000/svg"><g clip-path="url(#a)"><path d="M512 1024c282.77 0 512-229.23 512-512S794.77 0 512 0 0 229.23 0 512s229.23 512 512 512Z" fill="#728DBE"/><path d="m763 546.42-76.84 46.1V398L763 351.9v194.52ZM346.03 699.48 507.9 796.6v-92.48L346.03 607v92.48ZM677.97 607 516.1 704.12v92.48l161.87-97.12V607ZM516.1 300.88v121.58l101.34-60.78-101.34-60.81v.01ZM346.04 470.94v121.58l50.69-30.4 50.69-30.4-101.37-60.79-.01.01Zm277.38 98.42-50.69-30.4v121.58l101.37-60.79-50.69-30.4.01.01Zm-115.51-146.9V300.88l-101.34 60.81 101.34 60.78v-.01Zm-158 177.3 101.37 60.79V538.97l-50.69 30.4-50.69 30.4.01-.01Zm282.55-34.53 45.51 27.29V470.94L576.6 531.73l55.86 33.5ZM390.64 361.68l-.03-.02 113.43-68.03-77.07-46.24-162.1 97.26 77.07 46.24 48.7-29.22v.01ZM261.01 546.41l76.84 46.1V397.99l-76.84-46.1v194.52Zm258.96-252.78 113.43 68.03-.03.02 48.7 29.22 77.07-46.24-162.1-97.26-77.07 46.24v-.01Z" fill="#fff"/></g><defs><clipPath id="a"><path fill="#fff" d="M0 0h1024v1024H0z"/></clipPath></defs></svg>

<svg width="1024" height="1024" viewBox="0 0 1024 1024" fill="none" xmlns="http://www.w3.org/2000/svg">
<g clip-path="url(#clip0_2_4008)">
<path d="M512 1024C794.77 1024 1024 794.77 1024 512C1024 229.23 794.77 0 512 0C229.23 0 0 229.23 0 512C0 794.77 229.23 1024 512 1024Z" fill="#728DBE"/>
<path d="M763 546.42L686.16 592.52V398L763 351.9V546.42ZM346.03 699.48L507.9 796.6V704.12L346.03 607V699.48ZM677.97 607L516.1 704.12V796.6L677.97 699.48V607ZM516.1 300.88V422.46L617.44 361.68L516.1 300.87V300.88ZM346.04 470.94V592.52L396.73 562.12L447.42 531.72L346.05 470.93L346.04 470.94ZM623.42 569.36L572.73 538.96V660.54L674.1 599.75L623.41 569.35L623.42 569.36ZM507.91 422.46V300.88L406.57 361.69L507.91 422.47V422.46ZM349.91 599.76L451.28 660.55V538.97L400.59 569.37L349.9 599.77L349.91 599.76ZM632.46 565.23L677.97 592.52V470.94L576.6 531.73L632.46 565.23ZM390.64 361.68L390.61 361.66L504.04 293.63L426.97 247.39L264.87 344.65L341.94 390.89L390.64 361.67V361.68ZM261.01 546.41L337.85 592.51V397.99L261.01 351.89V546.41ZM519.97 293.63L633.4 361.66L633.37 361.68L682.07 390.9L759.14 344.66L597.04 247.4L519.97 293.64V293.63Z" fill="white"/>
</g>
<defs>
<clipPath id="clip0_2_4008">
<rect width="1024" height="1024" fill="white"/>
</clipPath>
</defs>
</svg>
